X:19
T:Colored Aristocracy
S:Bernie Waugh
R:Reel
M:2/4
L:1/16
K:A
|:EF|\
"A"A2AA "E"FEFE|"A"A2AB cBAB|c2c2"E"~B2A2|"F#m"F3F F2de|
"D"f2fe fdfe|"A"ecec2BA2|1"B7"B2f^d fdfd|"E"B2g2g2:|2\
"A"ABc"E"e2cB2|"A"A4A2||
|:(3efg|\
"A"agab "E"afec|"F#m"fefc2BAe|ecfc ecFc|"C#m"EcFcEcFc|
"D"Af2f f3f|"A"ecec2BA2|1"B7"B2f^d fdfd|"E"B2g2g2:|2\
"A"ABc"E"e2cB2|"A"A4A2|]

